swiss/communes/0156.svg

<?xml version="1.0" encoding="UTF-8" standalone="no"?>
<!-- Created with Inkscape (http://www.inkscape.org/) -->
<svg
   xmlns:svg="http://www.w3.org/2000/svg"
   xmlns="http://www.w3.org/2000/svg"
   version="1.0"
   width="216.34293"
   height="253.41139"
   id="svg2780">
  <defs
     id="defs2782" />
  <g
     transform="translate(-37.505179,-788.25951)"
     id="layer1">
    <path
       d="M 38.505179,789.25951 L 42.402319,952.96923 C 45.185983,1069.9048 246.1673,1069.9048 248.95097,952.96923 L 252.84811,789.25951 L 38.505179,789.25951 z "
       style="fill:#ffe700;fill-opacity:1;fill-rule:evenodd;stroke:#000000;stroke-width:2;stroke-linecap:butt;stroke-miterlimit:4;stroke-dashoffset:0;stroke-opacity:1"
       id="path3282" />
    <g
       transform="translate(1.3738778,0)"
       style="fill:#c60021;fill-opacity:1"
       id="g75376">
      <path
         d="M 69.274186,62.74684 L 63.4433,44.826181 L 45.008112,48.736816 L 57.612414,34.726791 L 45.008111,20.716768 L 63.4433,24.627402 L 69.274184,6.7067432 L 75.105071,24.627402 L 93.540258,20.716767 L 80.935956,34.726791 L 93.540259,48.736815 L 75.105071,44.826181 L 69.274186,62.74684 z "
         transform="matrix(1.1267679,0,0,1.1263414,15.786327,790.26073)"
         style="fill:#c60021;fill-opacity:1;fill-rule:evenodd;stroke:#000000;stroke-width:0.88766232pt;stroke-linecap:butt;stroke-linejoin:miter;stroke-opacity:1"
         id="path17788" />
      <path
         d="M 69.274186,62.74684 L 63.4433,44.826181 L 45.008112,48.736816 L 57.612414,34.726791 L 45.008111,20.716768 L 63.4433,24.627402 L 69.274184,6.7067432 L 75.105071,24.627402 L 93.540258,20.716767 L 80.935956,34.726791 L 93.540259,48.736815 L 75.105071,44.826181 L 69.274186,62.74684 z "
         transform="matrix(1.1267679,0,0,1.1263414,116.70735,790.26073)"
         style="fill:#c60021;fill-opacity:1;fill-rule:evenodd;stroke:#000000;stroke-width:0.88766232pt;stroke-linecap:butt;stroke-linejoin:miter;stroke-opacity:1"
         id="path17790" />
    </g>
    <g
       transform="translate(0.9026835,0)"
       id="g75370">
      <rect
         width="158.73259"
         height="7.4756317"
         x="65.407669"
         y="977.64166"
         style="opacity:1;color:#000000;fill:#000000;fill-opacity:1;fill-rule:evenodd;stroke:none;stroke-width:1.00000012px;stroke-linecap:butt;stroke-linejoin:miter;marker:none;marker-start:none;marker-mid:none;marker-end:none;stroke-miterlimit:4;stroke-dasharray:none;stroke-dashoffset:0;stroke-opacity:1;visibility:visible;display:inline;overflow:visible;enable-background:accumulate"
         id="rect20715" />
      <path
         d="M 68.918862,975.52071 L 134.65996,975.52071 L 134.65996,950.14758 C 134.65996,938.52571 154.88797,938.52571 154.88797,950.14758 L 154.88797,975.52071 L 220.62906,975.52071 L 220.62906,898.8727 L 170.05899,898.8727 L 170.05899,928.82709 L 159.94498,928.82709 L 159.94498,916.84533 L 149.83097,916.84533 L 149.83097,928.82709 L 139.71697,928.82709 L 139.71696,916.84533 L 129.60295,916.84533 L 129.60295,928.82709 L 119.48893,928.82709 L 119.48893,898.8727 L 68.918864,898.8727 L 68.918862,975.52071 z M 90.451042,904.13782 L 97.677486,904.13782 L 97.677486,921.20718 L 90.451042,921.20718 L 90.451042,904.13782 z M 191.87044,904.13782 L 199.09688,904.13782 L 199.09688,921.20718 L 191.87044,921.20718 L 191.87044,904.13782 z "
         style="fill:#000000;fill-opacity:1;fill-rule:evenodd;stroke:none;stroke-width:1px;stroke-linecap:butt;stroke-linejoin:miter;stroke-opacity:1"
         id="path22655" />
      <path
         d="M 62.135072,896.75174 L 126.27272,896.75174 L 126.27272,867.85456 L 113.44519,867.85456 L 113.44519,883.36037 L 100.61766,883.36037 L 100.61766,867.85456 L 87.790133,867.85456 L 87.790133,883.36037 L 74.962603,883.36037 L 74.962603,867.85456 L 62.135073,867.85456 L 62.135072,896.75174 z "
         style="opacity:1;color:#000000;fill:#000000;fill-opacity:1;fill-rule:evenodd;stroke:none;stroke-width:1px;stroke-linecap:butt;stroke-linejoin:miter;marker:none;marker-start:none;marker-mid:none;marker-end:none;stroke-miterlimit:4;stroke-dasharray:none;stroke-dashoffset:0;stroke-opacity:1;visibility:visible;display:inline;overflow:visible;enable-background:accumulate"
         id="path24617" />
      <path
         d="M 163.2752,896.75174 L 227.41285,896.75174 L 227.41285,867.85456 L 214.58532,867.85456 L 214.58532,883.36037 L 201.75779,883.36037 L 201.75779,867.85456 L 188.93027,867.85456 L 188.93027,883.36037 L 176.10274,883.36037 L 176.10274,867.85456 L 163.27521,867.85456 L 163.2752,896.75174 z "
         style="opacity:1;color:#000000;fill:#000000;fill-opacity:1;fill-rule:evenodd;stroke:none;stroke-width:1px;stroke-linecap:butt;stroke-linejoin:miter;marker:none;marker-start:none;marker-mid:none;marker-end:none;stroke-miterlimit:4;stroke-dasharray:none;stroke-dashoffset:0;stroke-opacity:1;visibility:visible;display:inline;overflow:visible;enable-background:accumulate"
         id="path24619" />
    </g>
    <path
       d="M 175.625,203.28125 C 174.47904,203.33086 173.3571,203.53574 172.28125,203.875 C 164.18162,206.42917 151.78361,222.91066 142.3125,251.625 C 161.54405,249.14186 179.95372,242.42641 194.8125,231.40625 C 195.39961,226.24024 195.18699,221.48135 194.5,218 C 192.79866,209.37829 183.64674,202.93399 175.625,203.28125 z "
       transform="translate(20.28702,787.9201)"
       style="fill:#008439;fill-opacity:1;fill-rule:evenodd;stroke:#000000;stroke-width:1px;stroke-linecap:butt;stroke-linejoin:miter;stroke-opacity:1"
       id="path17786" />
    <path
       d="M 74.28125,203.28125 C 66.480183,203.40707 57.921829,209.68621 56.28125,218 C 55.592893,221.48827 55.377136,226.2596 55.96875,231.4375 C 70.823007,242.44621 89.248459,249.14331 108.46875,251.625 C 98.997641,222.91066 86.599634,206.42917 78.5,203.875 C 77.155189,203.45092 75.725892,203.25795 74.28125,203.28125 z "
       transform="translate(20.28702,787.9201)"
       style="fill:#008439;fill-opacity:1;fill-rule:evenodd;stroke:#000000;stroke-width:1px;stroke-linecap:butt;stroke-linejoin:miter;stroke-opacity:1"
       id="path75380" />
    <path
       d="M 125.375,202.9375 C 101.96115,202.9375 90.310097,228.85424 103.4375,250.90625 C 117.86837,253.35067 132.91288,253.35067 147.34375,250.90625 C 160.4747,228.85315 148.7903,202.9375 125.375,202.9375 z "
       transform="translate(20.28702,787.9201)"
       style="fill:#008439;fill-opacity:1;fill-rule:evenodd;stroke:#000000;stroke-width:1px;stroke-linecap:butt;stroke-linejoin:miter;stroke-opacity:1"
       id="path17779" />
  </g>
</svg>

<svg xmlns="http://www.w3.org/2000/svg" version="1.0" width="216.343" height="253.411"><path d="m38.505 789.26 3.897 163.71c2.784 116.935 203.765 116.935 206.549 0l3.897-163.71H38.505z" style="fill:#ffe700;fill-opacity:1;fill-rule:evenodd;stroke:#000;stroke-width:2;stroke-linecap:butt;stroke-miterlimit:4;stroke-dashoffset:0;stroke-opacity:1" transform="translate(-37.505 -788.26)"/><g style="fill:#c60021;fill-opacity:1"><path d="m69.274 62.747-5.83-17.92-18.436 3.91 12.604-14.01-12.604-14.01 18.435 3.91 5.831-17.92 5.831 17.92 18.435-3.91-12.604 14.01 12.604 14.01-18.435-3.91-5.83 17.92z" transform="matrix(1.12677 0 0 1.12634 -20.345 2.001)" style="fill:#c60021;fill-opacity:1;fill-rule:evenodd;stroke:#000;stroke-width:.88766232pt;stroke-linecap:butt;stroke-linejoin:miter;stroke-opacity:1"/><path d="m69.274 62.747-5.83-17.92-18.436 3.91 12.604-14.01-12.604-14.01 18.435 3.91 5.831-17.92 5.831 17.92 18.435-3.91-12.604 14.01 12.604 14.01-18.435-3.91-5.83 17.92z" transform="matrix(1.12677 0 0 1.12634 80.576 2.001)" style="fill:#c60021;fill-opacity:1;fill-rule:evenodd;stroke:#000;stroke-width:.88766232pt;stroke-linecap:butt;stroke-linejoin:miter;stroke-opacity:1"/></g><path style="opacity:1;color:#000;fill:#000;fill-opacity:1;fill-rule:evenodd;stroke:none;stroke-width:1.00000012px;stroke-linecap:butt;stroke-linejoin:miter;marker:none;marker-start:none;marker-mid:none;marker-end:none;stroke-miterlimit:4;stroke-dasharray:none;stroke-dashoffset:0;stroke-opacity:1;visibility:visible;display:inline;overflow:visible;enable-background:accumulate" d="M65.408 977.642h158.733v7.476H65.408z" transform="translate(-36.602 -788.26)"/><path d="M68.919 975.52h65.741v-25.372c0-11.622 20.228-11.622 20.228 0v25.373h65.741v-76.648h-50.57v29.954h-10.114v-11.982h-10.114v11.982h-10.114v-11.982h-10.114v11.982h-10.114v-29.954h-50.57v76.648zm21.532-71.382h7.226v17.07h-7.226v-17.07zm101.42 0h7.226v17.07h-7.227v-17.07z" style="fill:#000;fill-opacity:1;fill-rule:evenodd;stroke:none;stroke-width:1px;stroke-linecap:butt;stroke-linejoin:miter;stroke-opacity:1" transform="translate(-36.602 -788.26)"/><path d="M62.135 896.752h64.138v-28.897h-12.828v15.505h-12.827v-15.505H87.79v15.505H74.963v-15.505H62.135v28.897z" style="opacity:1;color:#000;fill:#000;fill-opacity:1;fill-rule:evenodd;stroke:none;stroke-width:1px;stroke-linecap:butt;stroke-linejoin:miter;marker:none;marker-start:none;marker-mid:none;marker-end:none;stroke-miterlimit:4;stroke-dasharray:none;stroke-dashoffset:0;stroke-opacity:1;visibility:visible;display:inline;overflow:visible;enable-background:accumulate" transform="translate(-36.602 -788.26)"/><path d="M163.275 896.752h64.138v-28.897h-12.828v15.505h-12.827v-15.505H188.93v15.505h-12.827v-15.505h-12.828v28.897z" style="opacity:1;color:#000;fill:#000;fill-opacity:1;fill-rule:evenodd;stroke:none;stroke-width:1px;stroke-linecap:butt;stroke-linejoin:miter;marker:none;marker-start:none;marker-mid:none;marker-end:none;stroke-miterlimit:4;stroke-dasharray:none;stroke-dashoffset:0;stroke-opacity:1;visibility:visible;display:inline;overflow:visible;enable-background:accumulate" transform="translate(-36.602 -788.26)"/><path d="M175.625 203.281a12.98 12.98 0 0 0-3.344.594c-8.1 2.554-20.497 19.036-29.969 47.75 19.232-2.483 37.642-9.199 52.5-20.219.588-5.166.375-9.925-.312-13.406-1.701-8.622-10.853-15.066-18.875-14.719zM74.281 203.281c-7.8.126-16.36 6.405-18 14.719-.688 3.488-.904 8.26-.312 13.438 14.854 11.008 33.28 17.705 52.5 20.187-9.471-28.714-21.87-45.196-29.969-47.75a13.326 13.326 0 0 0-4.219-.594z" transform="translate(-17.218 -.34)" style="fill:#008439;fill-opacity:1;fill-rule:evenodd;stroke:#000;stroke-width:1px;stroke-linecap:butt;stroke-linejoin:miter;stroke-opacity:1"/><path d="M125.375 202.938c-23.414 0-35.065 25.916-21.938 47.968a132.356 132.356 0 0 0 43.907 0c13.13-22.053 1.446-47.969-21.969-47.969z" transform="translate(-17.218 -.34)" style="fill:#008439;fill-opacity:1;fill-rule:evenodd;stroke:#000;stroke-width:1px;stroke-linecap:butt;stroke-linejoin:miter;stroke-opacity:1"/></svg>
